assets/images/mobile_puzzle_3_top_dark.svg

<?xml version="1.0" encoding="UTF-8"?>
<svg fill="none" viewBox="0 0 115 115" xmlns="http://www.w3.org/2000/svg">
<rect width="115" height="115" fill=""/>
<g filter="url(#b)">
<path d="m-427-1756c0-16.57 13.431-30 30-30h800c16.569 0 30 13.43 30 30v2494c0 16.569-13.431 30-30 30h-800c-16.569 0-30-13.431-30-30v-2494z" fill="#232A34"/>
</g>
<g filter="url(#a)">
<path d="m240.64 42.691c-4.998-5.03-11.778-7.87-18.847-7.88l-145.07-0.24c-0.2489 0.17-0.4779 0.3601-0.6969 0.5801l-0.4181 0.4299c-0.5974 0.61-0.7567 1.6801-0.3087 2.4201l0.5177 0.7999c6.6507 5.45 10.892 13.73 10.892 23.02 0 16.4-13.242 29.7-29.57 29.7s-29.57-13.3-29.57-29.7c0-9.21 4.1716-17.44 10.723-22.89l0.5775-0.9c0.448-0.73 0.2887-1.7999-0.3087-2.4199l-0.4181-0.4301c-0.2589-0.26-0.5476-0.4899-0.8463-0.6899l-142.39-0.24c-3.505-0.01-6.97 0.68-10.215 2.02-3.236 1.34-6.183 3.3099-8.662 5.7899s-4.451 5.4301-5.795 8.6801-2.041 6.73-2.051 10.25l-0.756 473.42c-0.01 3.52 0.677 7 2.011 10.26s3.295 6.21 5.765 8.7c2.469 2.49 5.406 4.47 8.641 5.82 3.236 1.35 6.701 2.05 10.205 2.06l326.87 0.55c3.505 0.01 6.969-0.68 10.215-2.02 3.236-1.34 6.183-3.31 8.662-5.79s4.45-5.43 5.794-8.68 2.041-6.73 2.051-10.25l0.787-473.39c0.01-7.12-2.788-13.94-7.786-18.98z" fill="#232A34"/>
</g>
<defs>
<filter id="b" x="-460" y="-1819" width="928" height="2622" color-interpolation-filters="sRGB" filterUnits="userSpaceOnUse">
<feFlood flood-opacity="0" result="BackgroundImageFix"/>
<feColorMatrix in="SourceAlpha" result="hardAlpha" values="0 0 0 0 0 0 0 0 0 0 0 0 0 0 0 0 0 0 127 0"/>
<feOffset dx="10" dy="10"/>
<feGaussianBlur stdDeviation="12.5"/>
<feComposite in2="hardAlpha" operator="out"/>
<feColorMatrix values="0 0 0 0 0.0784314 0 0 0 0 0.0784314 0 0 0 0 0.0784314 0 0 0 1 0"/>
<feBlend in2="BackgroundImageFix" result="effect1_dropShadow_403_337"/>
<feColorMatrix in="SourceAlpha" result="hardAlpha" values="0 0 0 0 0 0 0 0 0 0 0 0 0 0 0 0 0 0 127 0"/>
<feOffset dx="-8" dy="-8"/>
<feGaussianBlur stdDeviation="12.5"/>
<feComposite in2="hardAlpha" operator="out"/>
<feColorMatrix values="0 0 0 0 0.207843 0 0 0 0 0.254902 0 0 0 0 0.32549 0 0 0 1 0"/>
<feBlend in2="effect1_dropShadow_403_337" result="effect2_dropShadow_403_337"/>
<feBlend in="SourceGraphic" in2="effect2_dropShadow_403_337" result="shape"/>
</filter>
<filter id="a" x="-137.57" y="29.251" width="390" height="536.55" color-interpolation-filters="sRGB" filterUnits="userSpaceOnUse">
<feFlood flood-opacity="0" result="BackgroundImageFix"/>
<feBlend in="SourceGraphic" in2="BackgroundImageFix" result="shape"/>
<feColorMatrix in="SourceAlpha" result="hardAlpha" values="0 0 0 0 0 0 0 0 0 0 0 0 0 0 0 0 0 0 127 0"/>
<feOffset dx="4" dy="4"/>
<feGaussianBlur stdDeviation="10"/>
<feComposite in2="hardAlpha" k2="-1" k3="1" operator="arithmetic"/>
<feColorMatrix values="0 0 0 0 0.0784314 0 0 0 0 0.0784314 0 0 0 0 0.0784314 0 0 0 1 0"/>
<feBlend in2="shape" result="effect1_innerShadow_403_337"/>
<feColorMatrix in="SourceAlpha" result="hardAlpha" values="0 0 0 0 0 0 0 0 0 0 0 0 0 0 0 0 0 0 127 0"/>
<feOffset dx="-5" dy="-5"/>
<feGaussianBlur stdDeviation="10"/>
<feComposite in2="hardAlpha" k2="-1" k3="1" operator="arithmetic"/>
<feColorMatrix values="0 0 0 0 0.207843 0 0 0 0 0.254902 0 0 0 0 0.32549 0 0 0 1 0"/>
<feBlend in2="effect1_innerShadow_403_337" result="effect2_innerShadow_403_337"/>
</filter>
</defs>
</svg>

<svg width="115" height="115" viewBox="0 0 115 115" fill="none" xmlns="http://www.w3.org/2000/svg">
<rect width="115" height="115" fill="#E3E3E3"/>
<g filter="url(#filter0_dd_403_337)">
<path d="M-427 -1756C-427 -1772.57 -413.569 -1786 -397 -1786H403C419.569 -1786 433 -1772.57 433 -1756V738C433 754.569 419.569 768 403 768H-397C-413.569 768 -427 754.569 -427 738V-1756Z" fill="#232A34"/>
</g>
<g filter="url(#filter1_ii_403_337)">
<path d="M240.644 42.691C235.646 37.661 228.866 34.821 221.797 34.811L76.7268 34.571C76.4779 34.741 76.2489 34.9311 76.0299 35.1511L75.6118 35.581C75.0144 36.191 74.8551 37.2611 75.3031 38.0011L75.8208 38.801C82.4715 44.251 86.7128 52.531 86.7128 61.821C86.7128 78.221 73.4712 91.5211 57.1432 91.5211C40.8152 91.5211 27.5736 78.221 27.5736 61.821C27.5736 52.611 31.7452 44.381 38.2963 38.931L38.8738 38.031C39.3218 37.301 39.1625 36.2311 38.5651 35.6111L38.147 35.181C37.8881 34.921 37.5994 34.6911 37.3007 34.4911L-105.091 34.2511C-108.596 34.2411 -112.061 34.9311 -115.306 36.2711C-118.542 37.6111 -121.489 39.581 -123.968 42.061C-126.447 44.541 -128.419 47.4911 -129.763 50.7411C-131.107 53.9911 -131.804 57.4711 -131.814 60.9911L-132.57 534.411C-132.58 537.931 -131.893 541.411 -130.559 544.671C-129.225 547.931 -127.264 550.881 -124.794 553.371C-122.325 555.861 -119.388 557.841 -116.153 559.191C-112.917 560.541 -109.452 561.241 -105.948 561.251L220.921 561.801C224.426 561.811 227.89 561.121 231.136 559.781C234.372 558.441 237.319 556.471 239.798 553.991C242.277 551.511 244.248 548.561 245.592 545.311C246.936 542.061 247.633 538.581 247.643 535.061L248.43 61.671C248.44 54.551 245.642 47.731 240.644 42.691Z" fill="#232A34"/>
</g>
<defs>
<filter id="filter0_dd_403_337" x="-460" y="-1819" width="928" height="2622" filterUnits="userSpaceOnUse" color-interpolation-filters="sRGB">
<feFlood flood-opacity="0" result="BackgroundImageFix"/>
<feColorMatrix in="SourceAlpha" type="matrix" values="0 0 0 0 0 0 0 0 0 0 0 0 0 0 0 0 0 0 127 0" result="hardAlpha"/>
<feOffset dx="10" dy="10"/>
<feGaussianBlur stdDeviation="12.5"/>
<feComposite in2="hardAlpha" operator="out"/>
<feColorMatrix type="matrix" values="0 0 0 0 0.0784314 0 0 0 0 0.0784314 0 0 0 0 0.0784314 0 0 0 1 0"/>
<feBlend mode="normal" in2="BackgroundImageFix" result="effect1_dropShadow_403_337"/>
<feColorMatrix in="SourceAlpha" type="matrix" values="0 0 0 0 0 0 0 0 0 0 0 0 0 0 0 0 0 0 127 0" result="hardAlpha"/>
<feOffset dx="-8" dy="-8"/>
<feGaussianBlur stdDeviation="12.5"/>
<feComposite in2="hardAlpha" operator="out"/>
<feColorMatrix type="matrix" values="0 0 0 0 0.207843 0 0 0 0 0.254902 0 0 0 0 0.32549 0 0 0 1 0"/>
<feBlend mode="normal" in2="effect1_dropShadow_403_337" result="effect2_dropShadow_403_337"/>
<feBlend mode="normal" in="SourceGraphic" in2="effect2_dropShadow_403_337" result="shape"/>
</filter>
<filter id="filter1_ii_403_337" x="-137.57" y="29.251" width="390" height="536.55" filterUnits="userSpaceOnUse" color-interpolation-filters="sRGB">
<feFlood flood-opacity="0" result="BackgroundImageFix"/>
<feBlend mode="normal" in="SourceGraphic" in2="BackgroundImageFix" result="shape"/>
<feColorMatrix in="SourceAlpha" type="matrix" values="0 0 0 0 0 0 0 0 0 0 0 0 0 0 0 0 0 0 127 0" result="hardAlpha"/>
<feOffset dx="4" dy="4"/>
<feGaussianBlur stdDeviation="10"/>
<feComposite in2="hardAlpha" operator="arithmetic" k2="-1" k3="1"/>
<feColorMatrix type="matrix" values="0 0 0 0 0.0784314 0 0 0 0 0.0784314 0 0 0 0 0.0784314 0 0 0 1 0"/>
<feBlend mode="normal" in2="shape" result="effect1_innerShadow_403_337"/>
<feColorMatrix in="SourceAlpha" type="matrix" values="0 0 0 0 0 0 0 0 0 0 0 0 0 0 0 0 0 0 127 0" result="hardAlpha"/>
<feOffset dx="-5" dy="-5"/>
<feGaussianBlur stdDeviation="10"/>
<feComposite in2="hardAlpha" operator="arithmetic" k2="-1" k3="1"/>
<feColorMatrix type="matrix" values="0 0 0 0 0.207843 0 0 0 0 0.254902 0 0 0 0 0.32549 0 0 0 1 0"/>
<feBlend mode="normal" in2="effect1_innerShadow_403_337" result="effect2_innerShadow_403_337"/>
</filter>
</defs>
</svg>
